icons/chip.svg

<svg width="24" height="24" viewBox="0 0 24 24" fill="none" xmlns="http://www.w3.org/2000/svg">
<path fill-rule="evenodd" clip-rule="evenodd" d="M10.75 3.5C10.75 3.08579 10.4142 2.75 10 2.75C9.58579 2.75 9.25 3.08579 9.25 3.5V5.25H9C6.88579 5.25 5.25 6.88579 5.25 9V9.25H3.5C3.08579 9.25 2.75 9.58579 2.75 10C2.75 10.4142 3.08579 10.75 3.5 10.75H5.25V13.25H3.5C3.08579 13.25 2.75 13.5858 2.75 14C2.75 14.4142 3.08579 14.75 3.5 14.75H5.25V15C5.25 16.9979 6.86963 18.75 9 18.75H9.25V20.5C9.25 20.9142 9.58579 21.25 10 21.25C10.4142 21.25 10.75 20.9142 10.75 20.5V18.75H13.25V20.5C13.25 20.9142 13.5858 21.25 14 21.25C14.4142 21.25 14.75 20.9142 14.75 20.5V18.75H15C17.1142 18.75 18.75 17.1142 18.75 15V14.75H20.5C20.9142 14.75 21.25 14.4142 21.25 14C21.25 13.5858 20.9142 13.25 20.5 13.25H18.75V10.75H20.5C20.9142 10.75 21.25 10.4142 21.25 10C21.25 9.58579 20.9142 9.25 20.5 9.25H18.75V9C18.75 6.88579 17.1142 5.25 15 5.25H14.75V3.5C14.75 3.08579 14.4142 2.75 14 2.75C13.5858 2.75 13.25 3.08579 13.25 3.5V5.25H10.75V3.5ZM17.25 14V10V9C17.25 7.71421 16.2858 6.75 15 6.75H14H10H9C7.71421 6.75 6.75 7.71421 6.75 9V10V14V15C6.75 16.2021 7.73037 17.25 9 17.25H10H14H15C16.2858 17.25 17.25 16.2858 17.25 15V14Z" fill="black"/>
</svg>

<svg xmlns="http://www.w3.org/2000/svg" fill="none" viewBox="0 0 24 24">
  <path fill="#000" fill-rule="evenodd" d="M10.75 3.5a.75.75 0 0 0-1.5 0v1.75H9C6.886 5.25 5.25 6.886 5.25 9v.25H3.5a.75.75 0 0 0 0 1.5h1.75v2.5H3.5a.75.75 0 0 0 0 1.5h1.75V15c0 1.998 1.62 3.75 3.75 3.75h.25v1.75a.75.75 0 0 0 1.5 0v-1.75h2.5v1.75a.75.75 0 0 0 1.5 0v-1.75H15c2.114 0 3.75-1.636 3.75-3.75v-.25h1.75a.75.75 0 0 0 0-1.5h-1.75v-2.5h1.75a.75.75 0 0 0 0-1.5h-1.75V9c0-2.114-1.636-3.75-3.75-3.75h-.25V3.5a.75.75 0 0 0-1.5 0v1.75h-2.5V3.5Zm6.5 10.5V9c0-1.286-.964-2.25-2.25-2.25H9c-1.286 0-2.25.964-2.25 2.25v6c0 1.202.98 2.25 2.25 2.25h6c1.286 0 2.25-.964 2.25-2.25v-1Z" clip-rule="evenodd"/>
</svg>
